icons/currency-rupee-outline.svg

<svg xmlns="http://www.w3.org/2000/svg" width="24" height="24" viewBox="0 0 24 24">
  <path d="M12,1 C18.0751322,1 23,5.92486775 23,12 C23,18.0751322 18.0751322,23 12,23 C5.92486775,23 1,18.0751322 1,12 C1,5.92486775 5.92486775,1 12,1 Z M12,3 C7.02943725,3 3,7.02943725 3,12 C3,16.9705627 7.02943725,21 12,21 C16.9705627,21 21,16.9705627 21,12 C21,7.02943725 16.9705627,3 12,3 Z M15,7 C15.5522847,7 16,7.44771525 16,8 C16,8.51283584 15.6139598,8.93550716 15.1166211,8.99327227 L15,9 L13.4648083,8.99987491 C13.643921,9.30948551 13.7827256,9.64533239 13.8740471,10.00024 L15,10 C15.5522847,10 16,10.4477153 16,11 C16,11.5128358 15.6139598,11.9355072 15.1166211,11.9932723 L15,12 L13.8737652,12.0008704 C13.5411661,13.2919586 12.5801598,14.3306315 11.3362714,14.7713639 L11.223,14.808 L12.7071068,16.2928932 C13.0675907,16.6533772 13.0953203,17.2206082 12.7902954,17.6128994 L12.7071068,17.7071068 C12.3466228,18.0675907 11.7793918,18.0953203 11.3871006,17.7902954 L11.2928932,17.7071068 L8.29289322,14.7071068 C7.69031813,14.1045317 8.07233231,13.0928192 8.88636906,13.0059833 L9,13 L10,13 C10.7398681,13 11.3858696,12.5983051 11.7318219,12.0010978 L9,12 C8.44771525,12 8,11.5522847 8,11 C8,10.4871642 8.38604019,10.0644928 8.88337887,10.0067277 L9,10 L11.7323993,9.99992059 C11.3865854,9.40215912 10.7402698,9 10,9 L9,9 C8.44771525,9 8,8.55228475 8,8 C8,7.48716416 8.38604019,7.06449284 8.88337887,7.00672773 L9,7 L15,7 Z"/>
</svg>

<svg xmlns="http://www.w3.org/2000/svg" viewBox="0 0 24 24">
  <path d="M12 1a11 11 0 1 1 0 22 11 11 0 0 1 0-22zm0 2a9 9 0 1 0 0 18 9 9 0 0 0 0-18zm3 4a1 1 0 0 1 .12 2h-1.66c.18.3.32.65.41 1H15a1 1 0 0 1 .12 2h-1.25a4 4 0 0 1-2.53 2.77l-.12.04 1.49 1.48a1 1 0 0 1 .08 1.32l-.08.1a1 1 0 0 1-1.32.08l-.1-.08-3-3a1 1 0 0 1 .6-1.7L9 13h1a2 2 0 0 0 1.73-1H9a1 1 0 0 1-.12-2h2.85A2 2 0 0 0 10 9H9a1 1 0 0 1-.12-2H15z"/>
</svg>
